public/svg/key-info-quote.svg

<svg width="75" height="75" viewBox="0 0 75 75" fill="none" xmlns="http://www.w3.org/2000/svg">
<g clip-path="url(#clip0_173_60140)">
<path d="M74.2176 0.229517C73.7325 -0.0616944 73.1295 -0.0767822 72.6303 0.189526L67.8955 2.71462L63.1607 0.18938C62.6867 -0.0634521 62.1182 -0.0634521 61.644 0.18938L56.9092 2.71462L52.1744 0.18938C51.7003 -0.0634521 51.1318 -0.0634521 50.6577 0.18938L45.9229 2.71462L41.188 0.18938C40.714 -0.0634521 40.1455 -0.0634521 39.6713 0.18938L34.9365 2.71462L30.2017 0.18938C29.7021 -0.0767822 29.0997 -0.0618408 28.6144 0.22937C28.129 0.520728 27.832 1.04514 27.832 1.61116V14.9188H14.8C12.8213 14.9071 10.9465 15.671 9.5313 17.0761C8.10806 18.4892 7.32437 20.3678 7.32437 22.3655V63.0239H1.61133C0.721436 63.0239 0 63.7453 0 64.6352V67.5527C0 71.6593 3.34072 74.9998 7.44697 74.9998H44.211C48.3173 74.9998 51.658 71.6591 51.658 67.553V51.9495H67.5533C71.6594 51.9495 75.0001 48.6088 75.0001 44.5027V1.61116C75 1.04514 74.7031 0.520728 74.2176 0.229517ZM7.44697 71.7772C5.11772 71.7772 3.22266 69.8823 3.22266 67.553V66.2468H36.7642V67.553C36.7642 69.1204 37.2508 70.5762 38.0811 71.7772H7.44697ZM44.211 71.7772C41.8819 71.7772 39.9869 69.8821 39.9869 67.553V64.6355C39.9869 63.7456 39.2654 63.0242 38.3755 63.0242H10.547V22.3657C10.547 21.233 10.9928 20.1666 11.802 19.3629C12.6031 18.5673 13.6569 18.1299 14.7888 18.1415H49.7521C48.9218 19.3425 48.4352 20.7983 48.4352 22.3657L48.4354 67.553C48.4352 69.8823 46.5403 71.7772 44.211 71.7772ZM51.6579 22.3657C51.6579 20.0364 53.5529 18.1415 55.8822 18.1415C58.2113 18.1415 60.1063 20.0364 60.1063 22.3657V44.5025C60.1063 46.0699 60.5931 47.5257 61.4234 48.7267H51.658L51.6579 22.3657ZM71.7773 44.5025C71.7773 46.8318 69.8823 48.7267 67.5532 48.7267C65.2239 48.7267 63.3289 46.8316 63.3289 44.5025V22.3657C63.3289 18.2594 59.9881 14.9188 55.882 14.9188H31.0547V4.2968L34.1782 5.96277C34.6522 6.2156 35.2207 6.2156 35.6949 5.96277L40.4297 3.43738L45.1645 5.96262C45.6385 6.21546 46.207 6.21546 46.6812 5.96262L51.416 3.43738L56.1508 5.96262C56.6249 6.21546 57.1934 6.21546 57.6675 5.96262L62.4023 3.43738L67.1372 5.96262C67.6112 6.21546 68.1797 6.21546 68.6539 5.96262L71.7773 4.2968V44.5025Z" fill="black"/>
<path d="M29.4911 23.9569C22.1408 23.9569 16.1609 29.9368 16.1609 37.287C16.1609 44.6371 22.1408 50.6171 29.4911 50.6171C36.8414 50.6171 42.8212 44.6373 42.8212 37.287C42.8212 29.9367 36.8414 23.9569 29.4911 23.9569ZM29.4911 47.3944C23.9178 47.3944 19.3835 42.8603 19.3835 37.287C19.3835 31.7137 23.9178 27.1796 29.4911 27.1796C35.0644 27.1796 39.5985 31.7138 39.5985 37.287C39.5985 42.8601 35.0644 47.3944 29.4911 47.3944Z" fill="#21558A"/>
<path d="M28.0115 41.8578C27.5843 41.8578 27.1744 41.688 26.8722 41.3858L24.175 38.6886C23.5457 38.0593 23.5457 37.0391 24.175 36.4099C24.8041 35.7806 25.8244 35.7806 26.4538 36.4099L28.0117 37.9678L31.9575 34.0218C32.5867 33.3925 33.607 33.3925 34.2364 34.0218C34.8657 34.6511 34.8657 35.6713 34.2364 36.3005L29.1512 41.3858C28.8489 41.688 28.439 41.8578 28.0115 41.8578Z" fill="#21558A"/>
<path d="M36.1067 57.209H22.8755C21.9856 57.209 21.2642 56.4875 21.2642 55.5977C21.2642 54.7078 21.9856 53.9863 22.8755 53.9863H36.1067C36.9966 53.9863 37.718 54.7078 37.718 55.5977C37.718 56.4875 36.9967 57.209 36.1067 57.209Z" fill="#21558A"/>
</g>
<defs>
<clipPath id="clip0_173_60140">
<rect width="75" height="75" fill="white"/>
</clipPath>
</defs>
</svg>

<svg xmlns="http://www.w3.org/2000/svg" width="75" height="75" fill="none"><g clip-path="url(#a)"><path fill="#000" d="M74.218.23A1.61 1.61 0 0 0 72.63.19l-4.734 2.525L63.16.189a1.61 1.61 0 0 0-1.517 0l-4.735 2.526L52.174.189a1.61 1.61 0 0 0-1.516 0l-4.735 2.526L41.188.189a1.61 1.61 0 0 0-1.517 0l-4.734 2.526L30.202.189a1.612 1.612 0 0 0-2.37 1.422V14.92H14.8a7.37 7.37 0 0 0-5.269 2.157 7.4 7.4 0 0 0-2.207 5.29v40.658H1.611c-.89 0-1.611.721-1.611 1.611v2.918C0 71.659 3.34 75 7.447 75h36.764c4.106 0 7.447-3.34 7.447-7.447V51.95h15.895c4.106 0 7.447-3.341 7.447-7.447V1.61c0-.566-.297-1.09-.782-1.381M7.447 71.777a4.23 4.23 0 0 1-4.224-4.224v-1.306h33.541v1.306c0 1.567.487 3.023 1.317 4.224zm36.764 0a4.23 4.23 0 0 1-4.224-4.224v-2.918c0-.89-.722-1.61-1.611-1.61H10.547v-40.66c0-1.132.446-2.198 1.255-3.002a4.14 4.14 0 0 1 2.987-1.221h34.963a7.4 7.4 0 0 0-1.317 4.224v45.187a4.23 4.23 0 0 1-4.224 4.224m7.447-49.411a4.23 4.23 0 0 1 4.224-4.224 4.23 4.23 0 0 1 4.224 4.224v22.136c0 1.568.487 3.024 1.317 4.225h-9.765zm20.12 22.136a4.23 4.23 0 0 1-4.225 4.225 4.23 4.23 0 0 1-4.224-4.224V22.365c0-4.107-3.34-7.447-7.447-7.447H31.055V4.297l3.123 1.666a1.61 1.61 0 0 0 1.517 0l4.735-2.526 4.734 2.526a1.61 1.61 0 0 0 1.517 0l4.735-2.526 4.735 2.526a1.61 1.61 0 0 0 1.516 0l4.735-2.526 4.735 2.526a1.61 1.61 0 0 0 1.517 0l3.123-1.666z"/><path fill="#21558A" d="M29.491 23.957c-7.35 0-13.33 5.98-13.33 13.33s5.98 13.33 13.33 13.33 13.33-5.98 13.33-13.33-5.98-13.33-13.33-13.33m0 23.437c-5.573 0-10.107-4.534-10.107-10.107S23.918 27.18 29.49 27.18 39.6 31.714 39.6 37.287 35.064 47.394 29.49 47.394"/><path fill="#21558A" d="M28.012 41.858c-.428 0-.838-.17-1.14-.472l-2.697-2.697a1.611 1.611 0 1 1 2.279-2.28l1.558 1.559 3.945-3.946a1.611 1.611 0 0 1 2.28 2.279l-5.086 5.085a1.6 1.6 0 0 1-1.14.472M36.107 57.209H22.876a1.611 1.611 0 0 1 0-3.223h13.23a1.611 1.611 0 0 1 0 3.223"/></g><defs><clipPath id="a"><path fill="#fff" d="M0 0h75v75H0z"/></clipPath></defs></svg>
